X: 23777
T: Little Florrie
R: hornpipe
M: 4/4
K: Gmajor
|:(3Bc^c|(3dc'/b/a (3gfe d>cB>A|c>BA>G A>GE>G|D>GB>d c>BA>G|B2 A2 A2 (3Bc^c|
(3dba (3gfe d>cB>A|c>BA>G A>GE>G|D>GB>d e>dc>A|G2 G>F G2:|
|:(3DEF|G>DB>A G>FE>D|E>Gc>B A>GF>E|D>GB>d c>BA>G|B2 A2 A2 (3Bc^c|
(3dba (3gfe d>cB>A|c>BA>G A>GE>G|D>GB>d e>dc>A|G2 G>F G2:|
|:(3def|g>fg>b a>fd>f|e>de>g d>BG>B|c>ge>c B>gd>B|A>GA>B A2 (3B/c/B/c/B/A/|
G>dB>G F>GA>B|c>Bc>d e>cA>F|G>dB>G F>Ad>f|g2 (3gfa g2:|

